X: 40497
T: Tommy Coen's
R: reel
M: 4/4
K: Gdorian
G2 dG G/G/G dG|F2 cF dFcF|G2 dG G/G/G dG|FGAc dAcA|
G2 dG G/G/G dG|F2 cF dFcF|GFDE FGAc|dAcA G4:|
dggf ~g3e|f2 af cfaf|dggf ~g3e|fdcA FGAc|
dggf ~g3e|f2 af cfaf|~d3e fage|1 fdcA GABc:|2 fdcA G3F||

